X: 67
T:Pibddawns Pontypridd
T:The Pontypridd Hornpipe
M:C
L:1/8
Q:180
S:Cadw Twmpath Collection
R:Hornpipe
A:Wales
Z:brian_martin12345@yahoo.com
K:G
d>c|B>GB>d c>Bc>A|G>FG>B A>GF>E|D>ED>C B,>DG>B|B>Ad>c (3BcBA2|
B>GB>d c>Bc>A|G>FG>B A>GF>E|D>ED>C B,>DG>B|c>AF>AG2:||
G>A|B>AB>c B>ee2|B>AB>c B>GF>G|A>^GA>B A>dF>A|B>GF>ED2d>c|
B>GB>d c>Bc>A|G>FG>B A>GF>E|D>ED>C B,>DG>B|c>AF>AG2:||
